src/images/Favicon.svg

<svg width="32" height="32" viewBox="0 0 32 32" fill="none" xmlns="http://www.w3.org/2000/svg">
<rect width="32" height="32" rx="16" fill="#347EFF"/>
<path d="M10.1719 22V20.6328L11.3828 20.3984V12.2344L10.1719 12V10.625H13.6953L18.6484 18.5156L18.6953 18.5078V12.2344L17.2422 12V10.625H21.9531V12L20.7344 12.2344V22H18.5312L13.4688 14.1875L13.4219 14.1953V20.3984L14.8828 20.6328V22H10.1719Z" fill="white"/>
</svg>

<svg width="32" height="32" fill="none" xmlns="http://www.w3.org/2000/svg"><rect width="32" height="32" rx="16" fill="#347EFF"/><path d="M10.172 22v-1.367l1.21-.235v-8.164L10.173 12v-1.375h3.523l4.953 7.89.047-.007v-6.274L17.242 12v-1.375h4.711V12l-1.219.234V22h-2.203l-5.062-7.813-.047.008v6.203l1.46.235V22h-4.71Z" fill="#fff"/></svg>
